X:078 
T:Hunter's Prize* (polka), The 
F:file ID: cre.5/078hunt_p
B:CRE5.085 (gan ainm)
M:2/4
L:1/8
Q:120
R:polka
K:D
B/c/|dA FD|AG/F/ G/F/E/F/|AG EC|BA FD/F/|
dA FD|AG/F/ G/F/E/F/|AG EC|1 D>CD:|2 DC D/E/D/G/||
|:AB/c/ d/e/f/g/|aa fa/f/|gg ef/g/|f/d/f/e/ d/c/B/G/|
AB/c/ d/e/f/g/|aa fa/f/|geec|1 dcd>B:|2 d>cd-|d4|]

%%%

